T: Cowboy, The
M: 6/8
L: 1/8
K: Gmaj
e2 e edB | ege edB | d2B def | gfe dBA |G2 A B2 d | ege d2 B | AGE G2 A | BGE G :|
